X:1
T:The Coast Of Austria
R:reel
M:4/4
L:1/8
K:D
DE|:FA~A2 BAFA|~B2dB AFED|FA~A2 BAFA|Bddc ~d2de|
|fedf edBA|~B2BA BcdB|~A2FA BcdB|AFEF ~D2DE:|
|:~F2FE DB,~B,2|~A,2A,B, ~D2DE|FA~A2 BAFA|Bddc ~d2de|
|fedf edBA|~B2BA BcdB|~A2FA BcdB|AFEF ~D2DE:|